X:1
T:Be Strong in the Lord
T:Be Strong in the Lord
T:W. W. Clark
T:W. W. Clark, 1889
T:Public Domain Courtesy of the Cyber Hymnal™
T:Public Domain Courtesy of the Cyber Hymnal™
C:W. W. Clark
Z:Public Domain
Z:Courtesy of the Cyber Hymnal™
%%score ( 1 2 ) ( 3 4 )
L:1/8
Q:1/4=100
M:4/4
K:A
V:1 treble 
V:2 treble 
V:3 bass 
V:4 bass 
V:1
 [CE] | [CA]2 [CA]>[CA] [EG]2 E>E | [Ed]2 [Ed]>[Ed] [Ed]3 [FA] | [FA]2 [FB]>[Fc] [Fd]2 [EG]>[EG] | %4
w: 1.~Be|strong in the Lord, tho’ sur-|round- ed by foes; Be|true to your king, tho’ all|
w: 2.~We|fight not with flesh, but with|pow- ers un- seen; We|wres- tle ’gainst dark- ness, with-|
w: 3.~With|loins girt with truth, we will|march to the fight, And|right- eous- ness wear as a|
w: 4.~Our|lead- er has prom- ised a|bright star- ry crown, And|beck- ons us on- ward to|
 [EA]2 [EB]>[EB] [Ec]3 [CE] | [CA]2 [CA]>[CA] [EG]2 E>E | [Ed]2 [Ed]>[Ed] [Ec]3 [Ec] | %7
w: hell shall op- pose; He’ll|con- quer their le- gions, He’ll|van- quish their throng; The|
w: out and with- in; The|con- flict is rag- ing, be|val- iant and strong, For|
w: breast- plate of light; Sal-|va- tion our hel- met, be-|stowed by our Lord, The|
w: fields of re- nown; We|has- ten to fol- low His|ban- ner un- furled, And|
 [Ee]2 [Ed]>[EB] [EA]2 [EG]>[EG] | [Ec]2 [DB]>[DE] !fermata![CA]2!fine! || %9
w: Lord is our cap- tain, He|leads us a- long.|
w: God is our tow- er, our|shield, and our song.|
w: sword of the Spir- it, His|con- quer- ing Word.|
w: trust- ing in Je- sus, we’ll|con- quer the world.|
[K:E]"^Refrain" [EG]>[FA] | [GB]6 [GB]>[Ge] | [Ad]6 [DF]>[EG] | [FA]6 [EG]>[Ac] | [GB]6 [GB]2 | %14
w: |||||
w: Then a-|wake! then a-|wake! Now a-|rise! now a-|rise! Put|
w: |||||
w: |||||
 [Ge]6 [B^e]>[Be] | [Af]4 [Ac]2 [Ae]2 | d6 [Ac]>[Ad] | e4 [G=d]2 z!D.C.! |] %18
w: ||||
w: on the whole|ar- mor, Be|strong in the|Lord, *|
w: ||||
w: ||||
V:2
 x | x6 E>E | x8 | x8 | x8 | x6 E>E | x8 | x8 | x6 ||[K:E] x2 | x8 | x8 | x8 | x8 | x8 | x8 | %16
 (A2 A>A A2) x2 | G2 A>A x3 |] %18
V:3
 [A,,A,] | [A,,A,]2 [A,,A,]>[A,,A,] [E,B,]2 [E,G,]>[E,G,] | %2
w: ~|~ ~ ~ ~ ~ ~|
 ([E,G,][F,A,]) [G,B,]>[E,G,] A,3 [F,C] | [F,C]2 [D,B,]>[C,^A,] [B,,B,]2 [D,B,]>[D,B,] | %4
w: ~ * ~ ~ ~ ~|~ ~ ~ ~ ~ ~|
 [C,A,]2 [E,G,]>[E,G,] A,3 [A,,A,] | [A,,A,]2 [A,,A,]>[A,,A,] [E,B,]2 [E,G,]>[E,G,] | %6
w: ~ ~ ~ ~ ~|~ ~ ~ ~ ~ ~|
 ([E,G,][F,A,]) [G,B,]>[E,G,] A,3 A, | [E,G,]2 [E,G,]>[E,G,] [E,C]2 [E,B,]>[E,B,] | %8
w: ~ * ~ ~ ~ ~|~ ~ ~ ~ ~ ~|
 [D,A,]2 [E,G,]>[E,G,] !fermata![A,,A,]2 ||[K:E] [E,B,]>[E,B,] | %10
w: ~ ~ ~ ~|Then a-|
 [E,E]>[E,E] (3[E,E][E,E][E,E] [E,E][E,E] z3/2 [E,B,]/ | (3B,B,B, (3B,B,B, B,2 [B,,B,]>[B,,B,] | %12
w: wake! the trum- pet is sound- ing, The|trum- pet is sound- ing a- far; Now a-|
 [B,,D]>[B,,D] (3[B,,D][B,,D][B,,D] [B,,D][B,,D] z3/2 [B,,D]/ | %13
w: rise! the Cap- tain is call- ing; The|
 (3[E,E][E,E][E,E] (3[E,E][E,E][E,E] [E,E]2 [E,E]2 | [E,B,]2 [E,B,]>[E,B,] [E,B,][E,B,] [E,=D]2 | %15
w: Cap- tain is call- ing for war; Put|on the whole ar- mor, Stand|
 [A,C]2 [A,C]>[A,C] [A,E]2 [A,C]2 | B,2 B,>B, B,2 [B,,B,]>[B,,B,] | %17
w: firm in the fight, Be|strong in the Lord, And the|
 [E,B,]2 [E,C]>[E,C] [E,B,]2 z |] %18
w: power of His might.|
V:4
 x | x8 | x4 A,3 x | x8 | x4 A,3 x | x8 | x4 A,3 A, | x8 | x6 ||[K:E] x2 | x8 | B,B,B,B, B,B, B,2 | %12
 x8 | x8 | x8 | x8 | B,2 B,>B, B,2 x2 | x7 |] %18

